brandsearch/.development/src/assets/images/icons/icon-bank.svg

<svg width="60" height="60" viewBox="0 0 60 60" fill="none" xmlns="http://www.w3.org/2000/svg">
<path d="M29.9983 8.17932C26.9887 8.17932 24.541 10.627 24.541 13.6366C24.541 16.6462 26.9887 19.0937 29.9983 19.0937C33.0079 19.0937 35.4555 16.6461 35.4555 13.6366C35.4555 10.6271 33.0078 8.17932 29.9983 8.17932ZM29.9983 16.3665C28.4935 16.3665 27.2684 15.1414 27.2684 13.6366C27.2684 12.1318 28.4935 10.9067 29.9983 10.9067C31.5031 10.9067 32.7282 12.1318 32.7282 13.6366C32.7282 15.1414 31.5031 16.3665 29.9983 16.3665Z" fill="#D0D2D8"/>
<path d="M29.9983 8.17932C26.9887 8.17932 24.541 10.627 24.541 13.6366C24.541 16.6462 26.9887 19.0937 29.9983 19.0937C33.0079 19.0937 35.4555 16.6461 35.4555 13.6366C35.4555 10.6271 33.0078 8.17932 29.9983 8.17932ZM29.9983 16.3665C28.4935 16.3665 27.2684 15.1414 27.2684 13.6366C27.2684 12.1318 28.4935 10.9067 29.9983 10.9067C31.5031 10.9067 32.7282 12.1318 32.7282 13.6366C32.7282 15.1414 31.5031 16.3665 29.9983 16.3665Z" fill="#3692E4"/>
<path d="M58.6364 24.5457C59.3902 24.5457 60.0001 23.9395 60.0001 23.1858V17.7319C60.0001 17.2512 59.7471 16.8052 59.3329 16.5601L32.658 0.718811C32.646 0.710757 32.634 0.704109 32.6221 0.697461C30.9641 -0.221332 29.0944 -0.249201 27.3406 0.716126L0.667202 16.5601C0.252997 16.805 0 17.2512 0 17.7319V23.1858C0 23.9395 0.609929 24.5457 1.36368 24.5457H5.45459V49.0923C2.44624 49.0923 0 51.5383 0 54.5463V58.6368C0 59.3904 0.609929 60.0003 1.36368 60.0003H58.6364C59.3902 60.0003 60.0001 59.3905 60.0001 58.6368V54.5463C60.0001 51.5383 57.5539 49.0923 54.5455 49.0923V24.5457H58.6364ZM57.2728 54.5457V57.273H2.72723V54.5457C2.72723 53.0423 3.95105 51.8185 5.45446 51.8185H6.81814H53.1819H54.5455C56.0489 51.8184 57.2728 53.0422 57.2728 54.5457ZM8.18182 49.0912V24.5457H13.6364V49.0912H8.18182ZM16.3636 49.0912V24.5457H24.5455V49.0912H16.3636ZM27.2727 49.0912V24.5457H32.7273V49.0912H27.2727ZM35.4545 49.0912V24.5457H43.6364V49.0912H35.4545ZM46.3637 49.0912V24.5457H51.8183V49.0912H46.3637ZM2.72723 21.8185V18.5039L28.6937 3.07773C29.5433 2.61035 30.4461 2.61162 31.2851 3.0684L57.2728 18.5039V21.8185H2.72723Z" fill="#D0D2D8"/>
<path d="M58.6364 24.5457C59.3902 24.5457 60.0001 23.9395 60.0001 23.1858V17.7319C60.0001 17.2512 59.7471 16.8052 59.3329 16.5601L32.658 0.718811C32.646 0.710757 32.634 0.704109 32.6221 0.697461C30.9641 -0.221332 29.0944 -0.249201 27.3406 0.716126L0.667202 16.5601C0.252997 16.805 0 17.2512 0 17.7319V23.1858C0 23.9395 0.609929 24.5457 1.36368 24.5457H5.45459V49.0923C2.44624 49.0923 0 51.5383 0 54.5463V58.6368C0 59.3904 0.609929 60.0003 1.36368 60.0003H58.6364C59.3902 60.0003 60.0001 59.3905 60.0001 58.6368V54.5463C60.0001 51.5383 57.5539 49.0923 54.5455 49.0923V24.5457H58.6364ZM57.2728 54.5457V57.273H2.72723V54.5457C2.72723 53.0423 3.95105 51.8185 5.45446 51.8185H6.81814H53.1819H54.5455C56.0489 51.8184 57.2728 53.0422 57.2728 54.5457ZM8.18182 49.0912V24.5457H13.6364V49.0912H8.18182ZM16.3636 49.0912V24.5457H24.5455V49.0912H16.3636ZM27.2727 49.0912V24.5457H32.7273V49.0912H27.2727ZM35.4545 49.0912V24.5457H43.6364V49.0912H35.4545ZM46.3637 49.0912V24.5457H51.8183V49.0912H46.3637ZM2.72723 21.8185V18.5039L28.6937 3.07773C29.5433 2.61035 30.4461 2.61162 31.2851 3.0684L57.2728 18.5039V21.8185H2.72723Z" fill="#3692E4"/>
</svg>

<svg width="60" height="60" fill="none" xmlns="http://www.w3.org/2000/svg"><path d="M29.998 8.18a5.463 5.463 0 00-5.457 5.457 5.463 5.463 0 005.457 5.457 5.463 5.463 0 005.457-5.458 5.463 5.463 0 00-5.457-5.457zm0 8.186a2.734 2.734 0 01-2.73-2.73 2.734 2.734 0 012.73-2.73 2.734 2.734 0 012.73 2.73 2.734 2.734 0 01-2.73 2.73z" fill="#D0D2D8"/><path d="M29.998 8.18a5.463 5.463 0 00-5.457 5.457 5.463 5.463 0 005.457 5.457 5.463 5.463 0 005.457-5.458 5.463 5.463 0 00-5.457-5.457zm0 8.186a2.734 2.734 0 01-2.73-2.73 2.734 2.734 0 012.73-2.73 2.734 2.734 0 012.73 2.73 2.734 2.734 0 01-2.73 2.73z" fill="url(#paint0_linear)"/><path d="M58.636 24.546A1.36 1.36 0 0060 23.186v-5.454c0-.48-.253-.927-.667-1.172L32.658.72l-.036-.022c-1.658-.918-3.528-.946-5.281.02L.667 16.56A1.361 1.361 0 000 17.732v5.454c0 .753.61 1.36 1.364 1.36h4.09v24.546A5.46 5.46 0 000 54.546v4.09C0 59.39.61 60 1.364 60h57.272C59.39 60 60 59.39 60 58.637v-4.09a5.46 5.46 0 00-5.455-5.455V24.546h4.091zm-1.363 30v2.727H2.727v-2.727a2.73 2.73 0 012.727-2.727H54.545a2.73 2.73 0 012.728 2.727zM8.182 49.09V24.546h5.454V49.09H8.182zm8.182 0V24.546h8.181V49.09h-8.181zm10.909 0V24.546h5.454V49.09h-5.454zm8.182 0V24.546h8.181V49.09h-8.181zm10.909 0V24.546h5.454V49.09h-5.454zM2.727 21.818v-3.314L28.694 3.078c.85-.468 1.752-.466 2.591-.01l25.988 15.436v3.314H2.727z" fill="#D0D2D8"/><path d="M58.636 24.546A1.36 1.36 0 0060 23.186v-5.454c0-.48-.253-.927-.667-1.172L32.658.72l-.036-.022c-1.658-.918-3.528-.946-5.281.02L.667 16.56A1.361 1.361 0 000 17.732v5.454c0 .753.61 1.36 1.364 1.36h4.09v24.546A5.46 5.46 0 000 54.546v4.09C0 59.39.61 60 1.364 60h57.272C59.39 60 60 59.39 60 58.637v-4.09a5.46 5.46 0 00-5.455-5.455V24.546h4.091zm-1.363 30v2.727H2.727v-2.727a2.73 2.73 0 012.727-2.727H54.545a2.73 2.73 0 012.728 2.727zM8.182 49.09V24.546h5.454V49.09H8.182zm8.182 0V24.546h8.181V49.09h-8.181zm10.909 0V24.546h5.454V49.09h-5.454zm8.182 0V24.546h8.181V49.09h-8.181zm10.909 0V24.546h5.454V49.09h-5.454zM2.727 21.818v-3.314L28.694 3.078c.85-.468 1.752-.466 2.591-.01l25.988 15.436v3.314H2.727z" fill="url(#paint1_linear)"/><defs><linearGradient id="paint0_linear" x1="29.998" y1="8.179" x2="29.998" y2="19.094" gradientUnits="userSpaceOnUse"><stop stop-color="#00AFEC"/><stop offset="1" stop-color="#307ABD"/></linearGradient><linearGradient id="paint1_linear" x1="30" y1="0" x2="30" y2="60" gradientUnits="userSpaceOnUse"><stop stop-color="#00AFEC"/><stop offset="1" stop-color="#307ABD"/></linearGradient></defs></svg>
